; generated by PrusaSlicer 2.3.1+linux-x64 on 2022-06-26 at 18:06:57 UTC


;
;

;
;
; 

; external perimeters extrusion width = 0.45mm
; perimeters extrusion width = 0.45mm
; infill extrusion width = 0.45mm
; solid infill extrusion width = 0.45mm
; top infill extrusion width = 0.40mm
; first layer extrusion width = 0.42mm

M73 P0 R51
M201 X1250 Y1250 Z400 E5000 ; sets maximum accelerations, mm/sec^2
M203 X180 Y180 Z12 E80 ; sets maximum feedrates, mm/sec
M204 P1250 R1250 T1250 ; sets acceleration (P, T) and retract acceleration (R), mm/sec^2
M205 X8.00 Y8.00 Z2.00 E10.00 ; sets the jerk limits, mm/sec
M205 S0 T0 ; sets the minimum extruding and travel feed rate, mm/sec
M107
;TYPE:Custom
G90 ; use absolute coordinates
M83 ; extruder relative mode
M104 S170 ; set extruder temp for bed leveling
M140 S60 ; set bed temp
M109 R170 ; wait for bed leveling temp
M190 S60 ; wait for bed temp
G28 ; home all without mesh bed level
G29 ; mesh bed leveling 
M104 S215 ; set extruder temp
G92 E0.0
G1 Y-2.0 X179 F2400
G1 Z3 F720
M109 S215 ; wait for extruder temp

; intro line
G1 X170 F1000
G1 Z0.2 F720
G1 X110.0 E8.0 F900
G1 X40.0 E10.0 F700
G92 E0.0

M221 S95 ; set flow
G21 ; set units to millimeters
G90 ; use absolute coordinates
M83 ; use relative distances for extrusion
M900 K0.2 ; Filament gcode LA 1.5
; ; Filament gcode LA 1.0
;LAYER_CHANGE
;Z:0.2
;HEIGHT:0.2
;BEFORE_LAYER_CHANGE
G92 E0.0
;0.2


M73 P0 R50
G1 E-3.20000 F4200.000
G1 Z0.200 F9000.000
;AFTER_LAYER_CHANGE
;0.2
G1 Z0.400
G1 X41.987 Y57.632
G1 Z0.200
G1 E3.20000 F2400.000
M204 S800
;TYPE:Skirt
;WIDTH:0.42
G1 F1200.000
G1 X42.429 Y56.475 E0.03882
G1 X42.931 Y55.685 E0.02937
G1 X43.819 Y54.769 E0.04001
G1 X44.439 Y54.339 E0.02366
G1 X45.433 Y53.873 E0.03442
G1 X46.192 Y53.668 E0.02465
G1 X46.979 Y53.579 E0.02483
G1 X132.992 Y53.579 E2.69688
G1 X133.912 Y53.691 E0.02904
G1 X135.047 Y54.065 E0.03750
G1 X135.788 Y54.482 E0.02664
G1 X136.682 Y55.230 E0.03657
G1 X137.223 Y55.896 E0.02689
G1 X137.786 Y56.938 E0.03714
G1 X138.035 Y57.731 E0.02606
G1 X138.175 Y58.846 E0.03524
G1 X138.176 Y121.122 E1.95263
G1 X138.013 Y122.363 E0.03924
G1 X137.573 Y123.521 E0.03885
G1 X137.072 Y124.313 E0.02937
G1 X136.187 Y125.225 E0.03984
G1 X135.567 Y125.658 E0.02370
G1 X134.578 Y126.123 E0.03427
G1 X133.808 Y126.332 E0.02501
G1 X133.021 Y126.421 E0.02486
G1 X46.989 Y126.421 E2.69747
G1 X46.052 Y126.301 E0.02962
G1 X44.823 Y125.872 E0.04082
G1 X43.782 Y125.200 E0.03883
G1 X42.910 Y124.290 E0.03953
G1 X42.487 Y123.638 E0.02438
G1 X42.165 Y122.929 E0.02439
G1 X41.887 Y121.860 E0.03464
G1 X41.824 Y121.100 E0.02391
G1 X41.823 Y58.920 E1.94962
M73 P1 R50
G1 X41.979 Y57.692 E0.03881
M204 S1250
; printing object rak7248-oled-top.amf id:0 copy 0
G1 E-2.24000 F4200.000
;WIPE_START
G1 F7200.000
G1 X42.429 Y56.475 E-0.71854
G1 X42.616 Y56.181 E-0.19346
;WIPE_END
G1 E-0.04800 F4200.000
G1 Z0.400 F9000.000
G1 X67.613 Y75.513
G1 Z0.200
G1 E3.20000 F2400.000
M204 S800
;TYPE:Perimeter
G1 F1200.000
G1 X88.987 Y75.513 E0.67017
G1 X88.987 Y104.487 E0.90846
G1 X67.613 Y104.487 E0.67017
G1 X67.613 Y75.573 E0.90658
M204 S1250
G1 X67.990 Y75.890 F9000.000
M204 S800
;TYPE:External perimeter
G1 F1200.000
G1 X88.610 Y75.890 E0.64653
G1 X88.610 Y104.110 E0.88482
G1 X67.990 Y104.110 E0.64653
G1 X67.990 Y75.950 E0.88294
M204 S1250
G1 X67.906 Y75.499 F9000.000
G1 E-2.24000 F4200.000
;WIPE_START
G1 F7200.000
G1 X69.636 Y75.945 E-0.91200
;WIPE_END
G1 E-0.04800 F4200.000
G1 Z0.400 F9000.000
G1 X49.852 Y61.095
G1 Z0.200
G1 E3.20000 F2400.000
M204 S800
;TYPE:Perimeter
G1 F1200.000
G1 X49.668 Y61.317 E0.00901
G1 X49.459 Y61.513 E0.00901
G1 X49.226 Y61.682 E0.00901
G1 X48.974 Y61.821 E0.00901
G1 X48.707 Y61.927 E0.00902
G1 X48.429 Y61.998 E0.00900
G1 X48.144 Y62.034 E0.00901
G1 X47.856 Y62.034 E0.00902
G1 X47.571 Y61.998 E0.00901
G1 X47.293 Y61.927 E0.00900
G1 X47.026 Y61.821 E0.00902
G1 X46.774 Y61.682 E0.00901
G1 X46.541 Y61.513 E0.00901
G1 X46.332 Y61.317 E0.00901
G1 X46.148 Y61.095 E0.00901
G1 X45.994 Y60.853 E0.00901
G1 X45.872 Y60.593 E0.00901
G1 X45.783 Y60.319 E0.00901
G1 X45.729 Y60.037 E0.00901
G1 X45.711 Y59.750 E0.00901
G1 X45.729 Y59.463 E0.00901
G1 X45.783 Y59.181 E0.00901
G1 X45.872 Y58.907 E0.00901
G1 X45.994 Y58.648 E0.00901
G1 X46.148 Y58.405 E0.00901
G1 X46.332 Y58.183 E0.00901
G1 X46.541 Y57.987 E0.00901
G1 X46.774 Y57.818 E0.00902
G1 X47.026 Y57.679 E0.00901
G1 X47.293 Y57.573 E0.00901
G1 X47.571 Y57.502 E0.00901
G1 X47.856 Y57.466 E0.00901
G1 X48.144 Y57.466 E0.00901
G1 X48.429 Y57.502 E0.00901
G1 X48.707 Y57.573 E0.00901
G1 X48.974 Y57.679 E0.00901
G1 X49.226 Y57.818 E0.00901
G1 X49.459 Y57.987 E0.00902
G1 X49.668 Y58.183 E0.00901
G1 X49.852 Y58.405 E0.00901
G1 X50.006 Y58.648 E0.00901
G1 X50.128 Y58.907 E0.00901
G1 X50.217 Y59.181 E0.00901
G1 X50.271 Y59.463 E0.00901
G1 X50.289 Y59.750 E0.00901
G1 X50.271 Y60.037 E0.00901
G1 X50.217 Y60.319 E0.00901
G1 X50.128 Y60.593 E0.00901
G1 X50.006 Y60.853 E0.00901
G1 X49.884 Y61.045 E0.00713
M204 S1250
G1 X49.565 Y60.843 F9000.000
M204 S800
;TYPE:External perimeter
G1 F1200.000
G1 X49.393 Y61.058 E0.00865
G1 X49.218 Y61.222 E0.00753
G1 X49.024 Y61.363 E0.00752
G1 X48.814 Y61.479 E0.00753
G1 X48.590 Y61.567 E0.00753
G1 X48.358 Y61.627 E0.00752
G1 X48.120 Y61.657 E0.00752
G1 X47.880 Y61.657 E0.00753
G1 X47.642 Y61.627 E0.00752
G1 X47.410 Y61.567 E0.00752
G1 X47.186 Y61.479 E0.00753
G1 X46.976 Y61.363 E0.00753
G1 X46.782 Y61.222 E0.00752
G1 X46.607 Y61.058 E0.00752
G1 X46.454 Y60.873 E0.00752
G1 X46.326 Y60.671 E0.00753
G1 X46.223 Y60.453 E0.00752
G1 X46.149 Y60.225 E0.00753
G1 X46.104 Y59.990 E0.00752
G1 X46.089 Y59.750 E0.00752
G1 X46.104 Y59.511 E0.00752
G1 X46.149 Y59.275 E0.00752
G1 X46.223 Y59.047 E0.00753
G1 X46.326 Y58.830 E0.00752
G1 X46.454 Y58.627 E0.00753
G1 X46.607 Y58.442 E0.00752
G1 X46.782 Y58.278 E0.00752
G1 X46.976 Y58.137 E0.00753
G1 X47.186 Y58.021 E0.00752
G1 X47.410 Y57.933 E0.00752
G1 X47.642 Y57.873 E0.00753
G1 X47.880 Y57.843 E0.00752
G1 X48.120 Y57.843 E0.00752
G1 X48.358 Y57.873 E0.00752
G1 X48.590 Y57.933 E0.00753
G1 X48.814 Y58.021 E0.00752
G1 X49.024 Y58.137 E0.00752
G1 X49.218 Y58.278 E0.00753
G1 X49.393 Y58.442 E0.00753
G1 X49.546 Y58.627 E0.00752
G1 X49.674 Y58.830 E0.00753
G1 X49.777 Y59.047 E0.00752
G1 X49.851 Y59.275 E0.00753
G1 X49.896 Y59.511 E0.00752
G1 X49.911 Y59.750 E0.00752
G1 X49.896 Y59.990 E0.00752
G1 X49.851 Y60.225 E0.00752
G1 X49.777 Y60.453 E0.00753
G1 X49.597 Y60.792 E0.01201
M204 S1250
G1 X49.686 Y61.091 F9000.000
G1 E-2.24000 F4200.000
;WIPE_START
G1 F7200.000
G1 X49.393 Y61.058 E-0.18598
G1 X49.218 Y61.222 E-0.13300
G1 X49.024 Y61.363 E-0.13297
G1 X48.814 Y61.479 E-0.13300
G1 X48.590 Y61.567 E-0.13302
G1 X48.358 Y61.627 E-0.13289
G1 X48.249 Y61.641 E-0.06114
;WIPE_END
G1 E-0.04800 F4200.000
G1 Z0.400 F9000.000
G1 X48.165 Y117.969
G1 Z0.200
G1 E3.20000 F2400.000
M204 S800
;TYPE:Perimeter
G1 F1200.000
G1 X48.429 Y118.002 E0.00835
G1 X48.707 Y118.073 E0.00901
G1 X48.974 Y118.179 E0.00901
G1 X49.226 Y118.318 E0.00901
G1 X49.459 Y118.487 E0.00901
G1 X49.668 Y118.683 E0.00901
G1 X49.852 Y118.905 E0.00901
G1 X50.006 Y119.147 E0.00901
G1 X50.128 Y119.408 E0.00901
G1 X50.217 Y119.681 E0.00901
G1 X50.271 Y119.963 E0.00901
G1 X50.289 Y120.250 E0.00901
G1 X50.271 Y120.537 E0.00901
G1 X50.217 Y120.819 E0.00901
G1 X50.128 Y121.093 E0.00901
G1 X50.006 Y121.353 E0.00901
G1 X49.852 Y121.595 E0.00901
G1 X49.668 Y121.817 E0.00901
G1 X49.459 Y122.013 E0.00901
G1 X49.226 Y122.182 E0.00901
G1 X48.974 Y122.321 E0.00901
G1 X48.707 Y122.427 E0.00901
G1 X48.429 Y122.498 E0.00901
G1 X48.144 Y122.534 E0.00901
G1 X47.856 Y122.534 E0.00901
G1 X47.571 Y122.498 E0.00901
G1 X47.293 Y122.427 E0.00901
G1 X47.026 Y122.321 E0.00901
G1 X46.774 Y122.182 E0.00901
G1 X46.541 Y122.013 E0.00901
G1 X46.332 Y121.817 E0.00901
G1 X46.148 Y121.595 E0.00901
G1 X45.994 Y121.353 E0.00901
G1 X45.872 Y121.093 E0.00901
G1 X45.783 Y120.819 E0.00901
G1 X45.729 Y120.537 E0.00901
G1 X45.711 Y120.250 E0.00901
G1 X45.730 Y119.960 E0.00910
G1 X45.790 Y119.661 E0.00958
G1 X45.872 Y119.408 E0.00835
G1 X45.994 Y119.147 E0.00901
G1 X46.148 Y118.905 E0.00901
G1 X46.332 Y118.683 E0.00901
G1 X46.541 Y118.487 E0.00901
G1 X46.774 Y118.318 E0.00901
G1 X47.028 Y118.178 E0.00910
G1 X47.313 Y118.068 E0.00958
G1 X47.571 Y118.002 E0.00835
G1 X47.859 Y117.966 E0.00910
G1 X48.105 Y117.968 E0.00769
M204 S1250
G1 X48.101 Y118.345 F9000.000
M204 S800
;TYPE:External perimeter
G1 F1200.000
G1 X48.358 Y118.373 E0.00811
G1 X48.590 Y118.433 E0.00752
G1 X48.814 Y118.521 E0.00752
G1 X49.024 Y118.637 E0.00752
G1 X49.218 Y118.778 E0.00752
G1 X49.393 Y118.942 E0.00752
G1 X49.546 Y119.127 E0.00752
G1 X49.674 Y119.329 E0.00752
G1 X49.777 Y119.547 E0.00752
G1 X49.851 Y119.775 E0.00752
G1 X49.896 Y120.011 E0.00752
G1 X49.911 Y120.250 E0.00752
G1 X49.896 Y120.489 E0.00752
G1 X49.851 Y120.725 E0.00752
G1 X49.777 Y120.953 E0.00752
G1 X49.674 Y121.171 E0.00752
G1 X49.546 Y121.373 E0.00752
G1 X49.393 Y121.558 E0.00752
G1 X49.218 Y121.722 E0.00752
G1 X49.024 Y121.863 E0.00752
G1 X48.814 Y121.979 E0.00752
G1 X48.590 Y122.067 E0.00752
G1 X48.358 Y122.127 E0.00752
G1 X48.120 Y122.157 E0.00752
G1 X47.880 Y122.157 E0.00752
G1 X47.642 Y122.127 E0.00752
G1 X47.410 Y122.067 E0.00752
G1 X47.186 Y121.979 E0.00752
G1 X46.976 Y121.863 E0.00752
G1 X46.782 Y121.722 E0.00752
G1 X46.607 Y121.558 E0.00752
G1 X46.454 Y121.373 E0.00752
G1 X46.326 Y121.171 E0.00752
G1 X46.223 Y120.953 E0.00752
G1 X46.149 Y120.725 E0.00752
G1 X46.104 Y120.490 E0.00752
G1 X46.089 Y120.250 E0.00752
G1 X46.104 Y120.010 E0.00756
G1 X46.155 Y119.757 E0.00809
G1 X46.223 Y119.547 E0.00692
G1 X46.326 Y119.329 E0.00752
G1 X46.454 Y119.127 E0.00752
G1 X46.607 Y118.942 E0.00752
G1 X46.782 Y118.778 E0.00752
G1 X46.976 Y118.637 E0.00752
G1 X47.187 Y118.521 E0.00756
G1 X47.428 Y118.428 E0.00809
G1 X47.642 Y118.373 E0.00692
G1 X47.881 Y118.343 E0.00756
G1 X48.041 Y118.344 E0.00501
M204 S1250
G1 X48.242 Y118.128 F9000.000
G1 E-2.24000 F4200.000
;WIPE_START
G1 F7200.000
G1 X48.358 Y118.373 E-0.17650
G1 X48.590 Y118.433 E-0.13298
G1 X48.814 Y118.521 E-0.13298
G1 X49.024 Y118.637 E-0.13297
G1 X49.218 Y118.778 E-0.13298
G1 X49.393 Y118.942 E-0.13299
G1 X49.474 Y119.040 E-0.07061
;WIPE_END
G1 E-0.04800 F4200.000
G1 Z0.400 F9000.000
G1 X129.711 Y120.250
G1 Z0.200
G1 E3.20000 F2400.000
M204 S800
;TYPE:Perimeter
G1 F1200.000
G1 X129.729 Y119.963 E0.00901
G1 X129.783 Y119.681 E0.00901
G1 X129.872 Y119.408 E0.00901
G1 X129.994 Y119.147 E0.00902
G1 X130.149 Y118.905 E0.00901
G1 X130.332 Y118.683 E0.00901
G1 X130.541 Y118.487 E0.00901
G1 X130.774 Y118.318 E0.00901
G1 X131.026 Y118.179 E0.00902
G1 X131.293 Y118.073 E0.00901
G1 X131.571 Y118.002 E0.00901
G1 X131.856 Y117.966 E0.00901
G1 X132.144 Y117.966 E0.00901
G1 X132.429 Y118.002 E0.00901
G1 X132.707 Y118.073 E0.00901
G1 X132.975 Y118.179 E0.00901
G1 X133.226 Y118.318 E0.00901
G1 X133.459 Y118.487 E0.00901
G1 X133.668 Y118.683 E0.00901
G1 X133.851 Y118.905 E0.00901
G1 X134.007 Y119.150 E0.00911
G1 X134.134 Y119.428 E0.00958
G1 X134.217 Y119.681 E0.00835
G1 X134.271 Y119.963 E0.00901
G1 X134.289 Y120.250 E0.00901
G1 X134.271 Y120.537 E0.00901
G1 X134.217 Y120.819 E0.00901
G1 X134.128 Y121.092 E0.00901
G1 X134.006 Y121.353 E0.00902
G1 X133.851 Y121.595 E0.00901
G1 X133.668 Y121.817 E0.00901
G1 X133.459 Y122.013 E0.00901
G1 X133.226 Y122.182 E0.00901
G1 X132.974 Y122.321 E0.00901
G1 X132.707 Y122.427 E0.00901
G1 X132.429 Y122.498 E0.00901
G1 X132.144 Y122.534 E0.00901
G1 X131.856 Y122.534 E0.00901
G1 X131.571 Y122.498 E0.00901
G1 X131.293 Y122.427 E0.00901
G1 X131.026 Y122.321 E0.00901
G1 X130.774 Y122.182 E0.00902
G1 X130.541 Y122.013 E0.00901
G1 X130.332 Y121.817 E0.00901
G1 X130.149 Y121.595 E0.00901
G1 X129.994 Y121.353 E0.00901
G1 X129.872 Y121.092 E0.00902
G1 X129.783 Y120.819 E0.00901
G1 X129.729 Y120.537 E0.00901
G1 X129.715 Y120.310 E0.00713
M204 S1250
G1 X130.091 Y120.286 F9000.000
M204 S800
;TYPE:External perimeter
G1 F1200.000
G1 X130.104 Y120.011 E0.00865
G1 X130.149 Y119.775 E0.00752
G1 X130.223 Y119.547 E0.00752
G1 X130.326 Y119.329 E0.00753
G1 X130.454 Y119.127 E0.00752
G1 X130.607 Y118.942 E0.00752
G1 X130.782 Y118.778 E0.00753
G1 X130.976 Y118.637 E0.00752
G1 X131.186 Y118.521 E0.00753
G1 X131.410 Y118.433 E0.00752
G1 X131.642 Y118.373 E0.00752
G1 X131.880 Y118.343 E0.00752
G1 X132.120 Y118.343 E0.00752
G1 X132.358 Y118.373 E0.00752
G1 X132.590 Y118.433 E0.00752
G1 X132.814 Y118.521 E0.00753
G1 X133.024 Y118.637 E0.00752
G1 X133.218 Y118.778 E0.00752
G1 X133.393 Y118.942 E0.00752
G1 X133.546 Y119.127 E0.00752
G1 X133.675 Y119.330 E0.00756
G1 X133.783 Y119.565 E0.00809
G1 X133.851 Y119.775 E0.00692
G1 X133.896 Y120.011 E0.00752
G1 X133.911 Y120.250 E0.00752
G1 X133.896 Y120.489 E0.00752
G1 X133.851 Y120.725 E0.00752
G1 X133.777 Y120.953 E0.00752
G1 X133.674 Y121.171 E0.00753
G1 X133.546 Y121.373 E0.00753
G1 X133.393 Y121.558 E0.00752
G1 X133.218 Y121.722 E0.00752
G1 X133.024 Y121.863 E0.00752
G1 X132.814 Y121.979 E0.00752
G1 X132.590 Y122.067 E0.00753
G1 X132.358 Y122.127 E0.00752
G1 X132.120 Y122.157 E0.00752
G1 X131.880 Y122.157 E0.00753
G1 X131.642 Y122.127 E0.00752
G1 X131.410 Y122.067 E0.00752
G1 X131.186 Y121.979 E0.00752
G1 X130.976 Y121.863 E0.00753
G1 X130.782 Y121.722 E0.00752
G1 X130.607 Y121.558 E0.00753
G1 X130.454 Y121.373 E0.00752
G1 X130.326 Y121.171 E0.00752
G1 X130.223 Y120.953 E0.00753
G1 X130.149 Y120.725 E0.00752
G1 X130.095 Y120.346 E0.01200
M204 S1250
G1 X129.848 Y120.157 F9000.000
G1 E-2.24000 F4200.000
;WIPE_START
G1 F7200.000
G1 X130.104 Y120.011 E-0.18605
G1 X130.149 Y119.775 E-0.13300
G1 X130.223 Y119.547 E-0.13296
G1 X130.326 Y119.329 E-0.13303
G1 X130.454 Y119.127 E-0.13297
G1 X130.607 Y118.942 E-0.13294
G1 X130.687 Y118.867 E-0.06105
;WIPE_END
G1 E-0.04800 F4200.000
G1 Z0.400 F9000.000
G1 X131.856 Y62.034
G1 Z0.200
G1 E3.20000 F2400.000
M204 S800
;TYPE:Perimeter
G1 F1200.000
G1 X131.571 Y61.998 E0.00901
G1 X131.293 Y61.927 E0.00900
G1 X131.026 Y61.821 E0.00902
G1 X130.774 Y61.682 E0.00902
G1 X130.541 Y61.513 E0.00901
G1 X130.332 Y61.317 E0.00901
G1 X130.148 Y61.095 E0.00901
G1 X129.994 Y60.853 E0.00901
G1 X129.872 Y60.593 E0.00901
G1 X129.783 Y60.319 E0.00901
G1 X129.729 Y60.037 E0.00901
G1 X129.711 Y59.750 E0.00901
G1 X129.729 Y59.463 E0.00901
G1 X129.783 Y59.181 E0.00901
G1 X129.872 Y58.908 E0.00901
G1 X129.994 Y58.647 E0.00901
G1 X130.148 Y58.405 E0.00901
G1 X130.332 Y58.183 E0.00901
G1 X130.541 Y57.987 E0.00901
G1 X130.774 Y57.818 E0.00901
G1 X131.026 Y57.679 E0.00901
G1 X131.293 Y57.573 E0.00901
G1 X131.571 Y57.502 E0.00901
G1 X131.856 Y57.466 E0.00901
G1 X132.144 Y57.466 E0.00901
G1 X132.429 Y57.502 E0.00901
G1 X132.707 Y57.573 E0.00901
G1 X132.975 Y57.679 E0.00902
G1 X133.226 Y57.818 E0.00901
G1 X133.459 Y57.987 E0.00901
G1 X133.668 Y58.183 E0.00901
G1 X133.851 Y58.405 E0.00901
G1 X134.006 Y58.647 E0.00902
G1 X134.128 Y58.908 E0.00901
G1 X134.217 Y59.181 E0.00901
G1 X134.271 Y59.463 E0.00901
G1 X134.289 Y59.750 E0.00901
G1 X134.271 Y60.037 E0.00901
G1 X134.217 Y60.319 E0.00901
G1 X134.128 Y60.593 E0.00901
G1 X134.006 Y60.853 E0.00901
G1 X133.851 Y61.095 E0.00902
G1 X133.668 Y61.317 E0.00901
G1 X133.459 Y61.513 E0.00901
G1 X133.226 Y61.682 E0.00901
G1 X132.975 Y61.821 E0.00901
G1 X132.707 Y61.927 E0.00902
G1 X132.429 Y61.998 E0.00900
G1 X132.144 Y62.034 E0.00901
G1 X131.916 Y62.034 E0.00714
M204 S1250
G1 X131.916 Y61.657 F9000.000
M204 S800
;TYPE:External perimeter
G1 F1200.000
G1 X131.642 Y61.627 E0.00865
G1 X131.410 Y61.567 E0.00752
G1 X131.186 Y61.479 E0.00753
G1 X130.976 Y61.363 E0.00753
G1 X130.782 Y61.222 E0.00752
G1 X130.607 Y61.058 E0.00753
G1 X130.454 Y60.873 E0.00752
G1 X130.326 Y60.671 E0.00752
G1 X130.223 Y60.453 E0.00752
G1 X130.149 Y60.225 E0.00753
G1 X130.104 Y59.989 E0.00752
G1 X130.089 Y59.750 E0.00752
G1 X130.104 Y59.511 E0.00752
G1 X130.149 Y59.275 E0.00752
G1 X130.223 Y59.047 E0.00753
G1 X130.326 Y58.829 E0.00752
G1 X130.454 Y58.627 E0.00753
G1 X130.607 Y58.442 E0.00752
G1 X130.782 Y58.278 E0.00753
G1 X130.976 Y58.137 E0.00752
G1 X131.186 Y58.021 E0.00752
G1 X131.410 Y57.933 E0.00753
G1 X131.642 Y57.873 E0.00752
